assets/images/finger.svg

<svg width="72" height="72" viewBox="0 0 72 72" fill="none" xmlns="http://www.w3.org/2000/svg">
<path d="M18.2002 11.8C18.4602 11.99 18.7602 12.09 19.0802 12.09H19.5802V11.98C19.6902 11.94 19.8002 11.89 19.9002 11.82C24.6702 8.65 30.2202 6.97 35.9502 6.96C41.6802 6.93 47.2302 8.62 52.0102 11.79C52.1702 11.9 52.3502 11.97 52.5502 12.01C52.7402 12.05 52.9402 12.05 53.1302 12.01C53.3202 11.97 53.5002 11.9 53.6602 11.79C53.8202 11.68 53.9602 11.54 54.0702 11.38C54.1802 11.22 54.2502 11.04 54.2902 10.84C54.3302 10.65 54.3302 10.45 54.2902 10.26C54.2502 10.07 54.1802 9.89 54.0702 9.72C53.9602 9.56 53.8202 9.42 53.6602 9.31C48.4102 5.84 42.3102 4 36.0102 4H35.9502C29.6302 4.01 23.5202 5.87 18.2602 9.37C18.0002 9.55 17.8002 9.81 17.6902 10.1C17.5802 10.4 17.5802 10.73 17.6702 11.03C17.7602 11.34 17.9502 11.6 18.2002 11.79V11.8Z" fill="#B3B3B3"/>
<path d="M65.4902 23.5099C63.8102 19.5399 61.3902 16.0099 58.2902 13.0199C58.0002 12.7499 57.6002 12.6099 57.2202 12.6099C56.8202 12.6099 56.4502 12.7799 56.1802 13.0699C55.9102 13.3499 55.7602 13.7399 55.7702 14.1399C55.7702 14.5399 55.9402 14.9099 56.2302 15.1799C59.0402 17.8899 61.2402 21.0899 62.7602 24.6799C64.2802 28.2699 65.0502 32.0799 65.0402 35.9799C65.0402 36.3699 65.2002 36.7499 65.4702 37.0299C65.7502 37.3099 66.1302 37.4599 66.5202 37.4599C66.9102 37.4599 67.2902 37.3099 67.5702 37.0299C67.8502 36.7499 68.0002 36.3699 68.0002 35.9799C68.0102 31.6699 67.1702 27.4699 65.4902 23.5099Z" fill="#B3B3B3"/>
<path d="M14.4501 47.8701C14.4201 47.6701 14.3501 47.4801 14.2501 47.3101C14.1501 47.1401 14.0101 46.9901 13.8401 46.8701C13.6801 46.7501 13.4901 46.6701 13.2901 46.6301C13.0901 46.5901 12.8901 46.5901 12.7001 46.6301C12.5001 46.6701 12.3201 46.7501 12.1401 46.8601C11.9701 46.9801 11.8401 47.1201 11.7301 47.2901C11.6201 47.4601 11.5501 47.6501 11.5201 47.8501C11.4901 48.0501 11.5001 48.2501 11.5401 48.4201C12.6601 54.1901 14.5701 58.7101 17.2001 61.8501C17.3401 62.0101 17.5201 62.1401 17.7201 62.2301C17.9101 62.3101 18.1201 62.3601 18.3301 62.3601H18.3501C18.6301 62.3601 18.9101 62.2801 19.1401 62.1301C19.3801 61.9801 19.5701 61.7601 19.6801 61.5101C19.8001 61.2501 19.8401 60.9701 19.8101 60.6901C19.7701 60.4101 19.6601 60.1501 19.4801 59.9301C17.1701 57.1601 15.4801 53.0901 14.4601 47.8701H14.4501Z" fill="#B3B3B3"/>
<path d="M12.0201 41.35H12.0801C12.4801 41.33 12.8401 41.15 13.1001 40.86C13.3601 40.57 13.5001 40.19 13.4801 39.79C13.3901 38.02 13.3901 36.68 13.3901 36.04C13.3901 31.7 14.6301 27.47 16.9701 23.82C19.3101 20.16 22.6301 17.27 26.5801 15.43C26.9201 15.25 27.1801 14.96 27.3001 14.59C27.4201 14.23 27.4101 13.84 27.2501 13.49C27.0901 13.14 26.8101 12.87 26.4501 12.73C26.0901 12.59 25.7001 12.59 25.3201 12.74C20.8701 14.79 17.1201 18.06 14.4701 22.18C11.8201 26.31 10.4101 31.08 10.4001 35.98C10.4001 36.66 10.4001 38.08 10.5001 39.94C10.5201 40.33 10.6901 40.69 10.9801 40.95C11.2601 41.2 11.6101 41.34 11.9801 41.34H12.0201V41.35Z" fill="#B3B3B3"/>
<path d="M64.4402 45.1899C61.9002 43.5199 61.5702 39.3999 61.5702 35.9999C61.5702 29.1599 58.9102 22.7299 54.0702 17.8999C49.2402 13.0599 42.8102 10.3999 35.9702 10.3999C35.5702 10.3999 35.2002 10.5499 34.9202 10.8299C34.6402 11.1099 34.4902 11.4799 34.4902 11.8799C34.4902 12.2799 34.6502 12.6499 34.9202 12.9299C35.2002 13.2099 35.5702 13.3699 35.9702 13.3699C42.0102 13.3699 47.7002 15.7199 51.9702 19.9999C56.2402 24.2799 58.6002 29.9499 58.6002 35.9999C58.6002 40.1499 59.0802 45.2199 62.7902 47.6699C63.0302 47.8399 63.3102 47.9299 63.6102 47.9299C63.9302 47.9299 64.2302 47.8299 64.4902 47.6399C64.7402 47.4499 64.9402 47.1799 65.0302 46.8799C65.1202 46.5699 65.1102 46.2499 65.0102 45.9499C64.9002 45.6499 64.7002 45.3899 64.4302 45.2099L64.4402 45.1899Z" fill="#B3B3B3"/>
<path d="M28.9304 64.0299C21.0104 55.8799 19.8204 42.9599 19.8204 35.9799C19.8204 33.1399 20.5704 30.3299 22.0004 27.8699C23.4304 25.4099 25.4804 23.3599 27.9504 21.9499C30.4204 20.5299 33.2404 19.7999 36.0704 19.7999C38.9104 19.8099 41.7204 20.5799 44.2104 22.0299C44.5504 22.1899 44.9304 22.2199 45.2904 22.1099C45.6504 21.9999 45.9504 21.7599 46.1404 21.4399C46.3304 21.1199 46.3904 20.7399 46.3104 20.3699C46.2304 19.9999 46.0104 19.6899 45.6704 19.4499C42.7604 17.7499 39.4504 16.8499 36.0904 16.8399C32.7104 16.8299 29.4004 17.7099 26.4904 19.3799C23.5704 21.0499 21.1404 23.4799 19.4504 26.3899C17.7604 29.2999 16.8704 32.6199 16.8704 35.9799C16.8704 43.3999 18.1604 57.1799 26.8104 66.0799C26.9504 66.2199 27.1104 66.3399 27.3004 66.4199C27.4804 66.4999 27.6804 66.5399 27.8804 66.5399C28.1704 66.5399 28.4504 66.4499 28.7004 66.2899C28.9404 66.1299 29.1304 65.8999 29.2404 65.6299C29.3504 65.3599 29.3904 65.0699 29.3304 64.7799C29.2804 64.4899 29.1404 64.2299 28.9404 64.0199L28.9304 64.0299Z" fill="#B3B3B3"/>
<path d="M52.1803 35.98C52.1803 36.38 52.3303 36.75 52.6103 37.03C52.8903 37.31 53.2603 37.46 53.6603 37.46C54.0603 37.46 54.4303 37.31 54.7103 37.02C54.9903 36.74 55.1403 36.37 55.1403 35.97C55.1403 31.54 53.5803 27.21 50.7803 23.81C50.6603 23.65 50.5103 23.51 50.3403 23.4C50.1703 23.3 49.9703 23.23 49.7703 23.2C49.5703 23.18 49.3703 23.19 49.1703 23.25C48.9703 23.31 48.7903 23.4 48.6403 23.53C48.4803 23.66 48.3503 23.82 48.2603 24C48.1703 24.18 48.1103 24.38 48.1003 24.58C48.0903 24.79 48.1103 24.99 48.1803 25.18C48.2503 25.37 48.3503 25.54 48.4703 25.67C50.8503 28.56 52.1603 32.22 52.1703 35.96L52.1803 35.98Z" fill="#B3B3B3"/>
<path d="M61.7302 51.59C57.8202 50.51 56.2502 44.76 55.6602 41.42C55.5902 41.03 55.3602 40.69 55.0402 40.47C54.8802 40.36 54.7002 40.28 54.5002 40.24C54.3102 40.2 54.1102 40.2 53.9202 40.24C53.7302 40.28 53.5402 40.35 53.3802 40.46C53.2202 40.57 53.0802 40.7 52.9602 40.87C52.8502 41.03 52.7702 41.21 52.7302 41.4C52.6902 41.59 52.6902 41.79 52.7302 41.98C53.4502 46 55.4602 52.98 60.9702 54.49C61.0602 54.51 61.1502 54.52 61.2502 54.52C61.2802 54.52 61.3102 54.52 61.3302 54.52C61.6902 54.52 62.0302 54.39 62.2902 54.16C62.5602 53.92 62.7402 53.6 62.7902 53.24C62.8402 52.88 62.7602 52.52 62.5602 52.22C62.3602 51.92 62.0602 51.7 61.7102 51.6L61.7302 51.59Z" fill="#B3B3B3"/>
<path d="M37.9202 65.2999C29.5502 59.0899 27.0502 48.7499 26.4302 41.1699C26.4102 40.9699 26.3602 40.7899 26.2702 40.6099C26.1802 40.4299 26.0602 40.2799 25.9102 40.1499C25.7602 40.0199 25.5902 39.9299 25.4002 39.8699C25.2102 39.8099 25.0202 39.7799 24.8202 39.7999C24.6202 39.8199 24.4302 39.8699 24.2602 39.9599C24.0802 40.0499 23.9302 40.1699 23.8002 40.3199C23.6702 40.4699 23.5802 40.6399 23.5202 40.8299C23.4602 41.0199 23.4402 41.2099 23.4502 41.4099C24.1202 49.6299 26.8702 60.8599 36.1402 67.6899C36.3902 67.8799 36.7102 67.9799 37.0202 67.9799C37.3302 67.9799 37.6402 67.8799 37.8902 67.6999C38.1502 67.5199 38.3302 67.2599 38.4302 66.9599C38.5302 66.6699 38.5302 66.3399 38.4302 66.0499C38.3402 65.7499 38.1502 65.4899 37.9002 65.2999H37.9202Z" fill="#B3B3B3"/>
<path d="M57.5203 56.4199C49.1503 54.8799 48.7303 39.1199 48.7303 35.9699C48.7303 33.0899 47.7303 30.2699 45.9303 28.0299C44.1303 25.7899 41.6003 24.1999 38.7903 23.5699C35.9803 22.9399 33.0103 23.2899 30.4303 24.5399C27.8403 25.7999 25.7403 27.9199 24.5103 30.5099C24.4203 30.6899 24.3703 30.8799 24.3503 31.0799C24.3403 31.2799 24.3603 31.4799 24.4303 31.6599C24.4903 31.8499 24.5903 32.0199 24.7303 32.1699C24.8603 32.3199 25.0203 32.4399 25.2003 32.5199C25.3803 32.5999 25.5703 32.6499 25.7703 32.6599C25.9703 32.6599 26.1603 32.6399 26.3503 32.5699C26.5403 32.4999 26.7003 32.3999 26.8503 32.2599C27.0003 32.1199 27.1103 31.9599 27.1903 31.7899C28.1403 29.7999 29.7503 28.1699 31.7303 27.1999C33.7103 26.2299 35.9903 25.9699 38.1403 26.4499C40.2903 26.9299 42.2403 28.1499 43.6203 29.8699C45.0003 31.5899 45.7603 33.7499 45.7603 35.9599C45.7603 40.9599 46.5703 57.4099 56.9703 59.3199C57.0503 59.3399 57.1303 59.3499 57.2103 59.3599C57.2103 59.3599 57.3003 59.3599 57.3403 59.3599C57.6903 59.3599 58.0303 59.2399 58.3003 59.0099C58.6003 58.7599 58.7903 58.3999 58.8303 57.9999C58.8703 57.6099 58.7403 57.2099 58.4903 56.9099C58.2403 56.6099 57.8803 56.4199 57.5303 56.3899L57.5203 56.4199Z" fill="#B3B3B3"/>
<path d="M46.3003 63.56C42.8903 62.13 40.0603 59.53 38.3403 56.25C38.1503 55.9 37.8403 55.65 37.4603 55.54C37.0803 55.43 36.6703 55.47 36.3303 55.66C35.9803 55.85 35.7303 56.16 35.6203 56.54C35.5103 56.92 35.5503 57.33 35.7403 57.66C37.7803 61.54 41.1303 64.6 45.1603 66.29C45.3303 66.37 45.5203 66.41 45.7103 66.41H45.7303C46.0703 66.41 46.4003 66.29 46.6703 66.08C46.9303 65.86 47.1203 65.56 47.1903 65.23C47.2603 64.9 47.2103 64.54 47.0503 64.24C46.8903 63.94 46.6303 63.7 46.3103 63.56H46.3003Z" fill="#B3B3B3"/>
<path d="M38.3602 33.6299C38.9902 34.2599 39.3402 35.0999 39.3402 35.9899C39.3402 36.3899 39.4902 36.7599 39.7802 37.0399C40.3402 37.5999 41.3202 37.5999 41.8802 37.0399C42.1602 36.7599 42.3102 36.3899 42.3102 35.9899C42.3102 34.3099 41.6502 32.7199 40.4602 31.5299C39.2702 30.3399 37.6902 29.6799 36.0002 29.6799C34.3102 29.6799 32.7302 30.3399 31.5402 31.5299C30.3502 32.7199 29.6902 34.2999 29.6902 35.9899C29.7602 41.6299 30.9602 47.0999 33.2502 52.2599C33.3702 52.5199 33.5502 52.7399 33.7902 52.8999C34.0302 53.0599 34.3102 53.1399 34.5902 53.1399H34.6102C34.8202 53.1399 35.0302 53.0899 35.2102 53.0099C35.3902 52.9299 35.5502 52.8199 35.6802 52.6699C35.8102 52.5299 35.9202 52.3599 35.9902 52.1799C36.0602 51.9999 36.0902 51.7999 36.0802 51.5999C36.0802 51.3999 36.0302 51.2099 35.9502 51.0399C33.8302 46.2699 32.7202 41.1999 32.6602 35.9899C32.6602 35.0999 33.0102 34.2599 33.6402 33.6299C34.8802 32.3899 37.1102 32.3899 38.3502 33.6299H38.3602Z" fill="#B3B3B3"/>
<path d="M52.9003 59.9699C46.6303 59.6599 44.0703 51.4499 43.0303 44.6099C43.0003 44.4099 42.9303 44.2299 42.8303 44.0499C42.7303 43.8799 42.5903 43.7299 42.4303 43.6099C42.2703 43.4899 42.0903 43.4099 41.8903 43.3699C41.6903 43.3299 41.5003 43.3199 41.3103 43.3599C40.9203 43.4199 40.5803 43.6299 40.3503 43.9499C40.1203 44.2699 40.0203 44.6599 40.0803 45.0499C41.8503 56.4199 46.2303 62.5999 52.6903 62.9099L52.8203 62.9299H52.8503C53.2303 62.9299 53.6003 62.7799 53.8803 62.5199C54.1603 62.2499 54.3303 61.8699 54.3403 61.4799C54.3403 61.0799 54.2003 60.7099 53.9303 60.4199C53.6603 60.1299 53.2903 59.9699 52.9003 59.9599V59.9699Z" fill="#B3B3B3"/>
<path d="M6.97012 35.98C6.95012 29.55 9.12013 23.22 13.0501 18.18C13.1901 18.03 13.2901 17.85 13.3501 17.66C13.4101 17.47 13.4401 17.26 13.4201 17.06C13.4001 16.86 13.3401 16.66 13.2401 16.48C13.1401 16.3 13.0101 16.15 12.8501 16.02C12.6901 15.9 12.5101 15.81 12.3101 15.75C12.1101 15.7 11.9101 15.69 11.7101 15.72C11.5101 15.75 11.3201 15.82 11.1501 15.93C10.9801 16.04 10.8301 16.18 10.7401 16.32C6.37012 21.9 3.98012 28.88 4.00012 35.97C4.00012 39.95 4.72012 43.85 6.16012 47.56C6.27012 47.84 6.45012 48.09 6.70012 48.26C6.95012 48.43 7.24012 48.53 7.54012 48.53H7.55012C7.74012 48.53 7.92012 48.49 8.08012 48.43C8.26012 48.36 8.42012 48.26 8.57012 48.12C8.71012 47.98 8.82012 47.83 8.90012 47.65C8.98012 47.47 9.02012 47.28 9.03012 47.08C9.03012 46.88 9.00012 46.69 8.93012 46.51C7.62012 43.14 6.96012 39.6 6.97012 35.98Z" fill="#B3B3B3"/>
</svg>

<svg width="72" height="72" viewBox="0 0 72 72" fill="none" xmlns="http://www.w3.org/2000/svg">
  <path d="M18.2 11.8c.26.19.56.29.88.29h.5v-.11c.11-.04.22-.09.32-.16a29 29 0 0 1 32.11-.03c.16.11.34.18.54.22a1.46 1.46 0 0 0 1.52-.63c.11-.16.18-.34.22-.54.04-.19.04-.39 0-.58a1.58 1.58 0 0 0-.22-.54 1.6 1.6 0 0 0-.41-.41A31.91 31.91 0 0 0 36.01 4h-.06a31.92 31.92 0 0 0-17.69 5.37 1.48 1.48 0 0 0-.06 2.42v.01Zm47.29 11.71a31.6 31.6 0 0 0-7.2-10.49 1.6 1.6 0 0 0-1.07-.41 1.5 1.5 0 0 0-1.45 1.53c0 .4.17.77.46 1.04a28.66 28.66 0 0 1 8.81 20.8c0 .39.16.77.43 1.05.28.28.66.43 1.05.43s.77-.15 1.05-.43.43-.66.43-1.05c.01-4.31-.83-8.51-2.51-12.47ZM14.45 47.87c-.03-.2-.1-.39-.2-.56-.1-.17-.24-.32-.41-.44a1.47 1.47 0 0 0-1.14-.24c-.2.04-.38.12-.56.23a1.52 1.52 0 0 0-.62.99c-.03.2-.02.4.02.57 1.12 5.77 3.03 10.29 5.66 13.43a1.52 1.52 0 0 0 1.13.51h.02a1.46 1.46 0 0 0 1.33-.85c.12-.26.16-.54.13-.82a1.53 1.53 0 0 0-.33-.76c-2.31-2.77-4-6.84-5.02-12.06h-.01Zm-2.43-6.52h.06a1.49 1.49 0 0 0 1.4-1.56c-.09-1.77-.09-3.11-.09-3.75a22.78 22.78 0 0 1 13.19-20.61 1.5 1.5 0 0 0 .67-1.94 1.45 1.45 0 0 0-.8-.76 1.52 1.52 0 0 0-1.13.01A25.65 25.65 0 0 0 10.4 35.98c0 .68 0 2.1.1 3.96a1.5 1.5 0 0 0 1.48 1.4h.04v.01Z" fill="#B3B3B3"/>
  <path d="M64.44 45.19c-2.54-1.67-2.87-5.79-2.87-9.19a25.4 25.4 0 0 0-7.5-18.1 25.4 25.4 0 0 0-18.1-7.5 1.47 1.47 0 0 0-1.48 1.48 1.48 1.48 0 0 0 1.48 1.49c6.04 0 11.73 2.35 16 6.63a22.5 22.5 0 0 1 6.63 16c0 4.15.48 9.22 4.19 11.67.24.17.52.26.82.26a1.47 1.47 0 0 0 1.42-1.05c.09-.31.08-.63-.02-.93-.11-.3-.31-.56-.58-.74l.01-.02Z" fill="#B3B3B3"/>
  <path d="M28.93 64.03c-7.92-8.15-9.11-21.07-9.11-28.05A16.17 16.17 0 0 1 36.07 19.8c2.84.01 5.65.78 8.14 2.23a1.5 1.5 0 0 0 2.1-1.66 1.5 1.5 0 0 0-.64-.92 19.12 19.12 0 0 0-26.22 6.94 19.13 19.13 0 0 0-2.58 9.59c0 7.42 1.29 21.2 9.94 30.1.14.14.3.26.49.34.18.08.38.12.58.12a1.46 1.46 0 0 0 1.36-.91c.11-.27.15-.56.09-.85a1.46 1.46 0 0 0-.39-.76l-.01.01Zm23.25-28.05a1.47 1.47 0 0 0 1.48 1.48c.4 0 .77-.15 1.05-.44.28-.28.43-.65.43-1.05a19.2 19.2 0 0 0-4.36-12.16c-.12-.16-.27-.3-.44-.41-.17-.1-.37-.17-.57-.2a1.53 1.53 0 0 0-1.13.33 1.48 1.48 0 0 0-.46 1.65c.07.19.17.36.29.49a16.3 16.3 0 0 1 3.7 10.29l.01.02Zm9.55 15.61c-3.91-1.08-5.48-6.83-6.07-10.17a1.48 1.48 0 0 0-2.28-.96 1.48 1.48 0 0 0-.65.94c-.04.19-.04.39 0 .58.72 4.02 2.73 11 8.24 12.51.09.02.18.03.28.03h.08c.36 0 .7-.13.96-.36.27-.24.45-.56.5-.92.05-.36-.03-.72-.23-1.02-.2-.3-.5-.52-.85-.62l.02-.01Z" fill="#B3B3B3"/>
  <path d="M37.92 65.3c-8.37-6.21-10.87-16.55-11.49-24.13a1.57 1.57 0 0 0-.52-1.02 1.41 1.41 0 0 0-.51-.28 1.51 1.51 0 0 0-1.88.96c-.06.19-.08.38-.07.58.67 8.22 3.42 19.45 12.69 26.28a1.47 1.47 0 0 0 1.75.01c.26-.18.44-.44.54-.74.1-.29.1-.62 0-.91-.09-.3-.28-.56-.53-.75h.02Zm19.6-8.88c-8.37-1.54-8.79-17.3-8.79-20.45a12.73 12.73 0 0 0-24.22-5.46 1.4 1.4 0 0 0-.08 1.15c.06.19.16.36.3.51.13.15.29.27.47.35.18.08.37.13.57.14a1.45 1.45 0 0 0 1.08-.4c.15-.14.26-.3.34-.47a9.78 9.78 0 0 1 16.43-1.92 9.76 9.76 0 0 1 2.14 6.09c0 5 .81 21.45 11.21 23.36l.24.04h.13a1.5 1.5 0 0 0 1.15-2.45c-.25-.3-.61-.49-.96-.52l-.01.03ZM46.3 63.56a16 16 0 0 1-7.96-7.31 1.48 1.48 0 0 0-2.6 1.41 18.94 18.94 0 0 0 9.42 8.63c.17.08.36.12.55.12h.02c.34 0 .67-.12.94-.33a1.48 1.48 0 0 0-.36-2.52h-.01Z" fill="#B3B3B3"/>
  <path d="M38.36 33.63c.63.63.98 1.47.98 2.36 0 .4.15.77.44 1.05.56.56 1.54.56 2.1 0 .28-.28.43-.65.43-1.05A6.28 6.28 0 0 0 36 29.68c-1.69 0-3.27.66-4.46 1.85a6.26 6.26 0 0 0-1.85 4.46 41.13 41.13 0 0 0 3.56 16.27c.12.26.3.48.54.64.24.16.52.24.8.24h.02a1.5 1.5 0 0 0 1.07-.47 1.41 1.41 0 0 0 .4-1.07c0-.2-.05-.39-.13-.56a37.95 37.95 0 0 1-3.29-15.05c0-.89.35-1.73.98-2.36a3.45 3.45 0 0 1 4.71 0h.01ZM52.9 59.97c-6.27-.31-8.83-8.52-9.87-15.36a1.53 1.53 0 0 0-.6-1c-.16-.12-.34-.2-.54-.24-.2-.04-.39-.05-.58-.01a1.49 1.49 0 0 0-1.23 1.69c1.77 11.37 6.15 17.55 12.61 17.86l.13.02h.03c.38 0 .75-.15 1.03-.41.28-.27.45-.65.46-1.04 0-.4-.14-.77-.41-1.06a1.45 1.45 0 0 0-1.03-.46v.01ZM6.97 35.98a28.95 28.95 0 0 1 6.08-17.8 1.52 1.52 0 0 0 .37-1.12 1.5 1.5 0 0 0-1.71-1.34c-.2.03-.39.1-.56.21a1.4 1.4 0 0 0-.41.39A31.86 31.86 0 0 0 4 35.97c0 3.98.72 7.88 2.16 11.59a1.5 1.5 0 0 0 1.38.97h.01a1.51 1.51 0 0 0 1.02-.41 1.54 1.54 0 0 0 .46-1.04c0-.2-.03-.39-.1-.57a28.72 28.72 0 0 1-1.96-10.53Z" fill="#B3B3B3"/>
</svg>
